images/3233184.svg

<?xml version="1.0" encoding="UTF-8"?>
<svg xmlns="http://www.w3.org/2000/svg" xmlns:xlink="http://www.w3.org/1999/xlink" width="300pt" height="300pt" viewBox="0 0 300 300" version="1.1">
<defs>
<g>
<symbol overflow="visible" id="glyph0-0">
<path style="stroke:none;" d="M 0.796875 2.828125 L 0.796875 -11.28125 L 8.796875 -11.28125 L 8.796875 2.828125 Z M 1.703125 1.9375 L 7.90625 1.9375 L 7.90625 -10.390625 L 1.703125 -10.390625 Z M 1.703125 1.9375 "/>
</symbol>
<symbol overflow="visible" id="glyph0-1">
<path style="stroke:none;" d="M 1.578125 -11.671875 L 3.703125 -11.671875 L 8.875 -1.90625 L 8.875 -11.671875 L 10.40625 -11.671875 L 10.40625 0 L 8.28125 0 L 3.109375 -9.765625 L 3.109375 0 L 1.578125 0 Z M 1.578125 -11.671875 "/>
</symbol>
<symbol overflow="visible" id="glyph0-2">
<path style="stroke:none;" d="M 6.3125 -10.59375 C 5.164062 -10.59375 4.253906 -10.164062 3.578125 -9.3125 C 2.898438 -8.457031 2.5625 -7.296875 2.5625 -5.828125 C 2.5625 -4.359375 2.898438 -3.195312 3.578125 -2.34375 C 4.253906 -1.488281 5.164062 -1.0625 6.3125 -1.0625 C 7.457031 -1.0625 8.363281 -1.488281 9.03125 -2.34375 C 9.695312 -3.195312 10.03125 -4.359375 10.03125 -5.828125 C 10.03125 -7.296875 9.695312 -8.457031 9.03125 -9.3125 C 8.363281 -10.164062 7.457031 -10.59375 6.3125 -10.59375 Z M 6.3125 -11.875 C 7.945312 -11.875 9.253906 -11.328125 10.234375 -10.234375 C 11.210938 -9.140625 11.703125 -7.671875 11.703125 -5.828125 C 11.703125 -3.984375 11.210938 -2.507812 10.234375 -1.40625 C 9.253906 -0.3125 7.945312 0.234375 6.3125 0.234375 C 4.664062 0.234375 3.351562 -0.3125 2.375 -1.40625 C 1.394531 -2.507812 0.90625 -3.984375 0.90625 -5.828125 C 0.90625 -7.671875 1.394531 -9.140625 2.375 -10.234375 C 3.351562 -11.328125 4.664062 -11.875 6.3125 -11.875 Z M 6.3125 -11.875 "/>
</symbol>
</g>
</defs>
<g id="surface34633">
<rect x="0" y="0" width="300" height="300" style="fill:rgb(100%,100%,100%);fill-opacity:1;stroke:none;"/>
<path style="fill:none;stroke-width:1.2;stroke-linecap:butt;stroke-linejoin:miter;stroke:rgb(0%,0%,0%);stroke-opacity:1;stroke-miterlimit:10;" d="M 37.835938 249.054688 L 53.859375 238.613281 "/>
<path style="fill:none;stroke-width:1.2;stroke-linecap:butt;stroke-linejoin:miter;stroke:rgb(0%,0%,100%);stroke-opacity:1;stroke-miterlimit:10;" d="M 53.859375 238.613281 L 69.882812 228.175781 "/>
<path style="fill:none;stroke-width:1.2;stroke-linecap:butt;stroke-linejoin:miter;stroke:rgb(0%,0%,100%);stroke-opacity:1;stroke-miterlimit:10;" d="M 69.882812 228.175781 L 86.9375 236.828125 "/>
<path style="fill:none;stroke-width:1.2;stroke-linecap:butt;stroke-linejoin:miter;stroke:rgb(0%,0%,0%);stroke-opacity:1;stroke-miterlimit:10;" d="M 86.9375 236.828125 L 103.992188 245.484375 "/>
<path style="fill:none;stroke-width:1.2;stroke-linecap:butt;stroke-linejoin:miter;stroke:rgb(0%,0%,100%);stroke-opacity:1;stroke-miterlimit:10;" d="M 69.882812 228.175781 L 68.851562 209.078125 "/>
<path style="fill:none;stroke-width:1.2;stroke-linecap:butt;stroke-linejoin:miter;stroke:rgb(0%,0%,0%);stroke-opacity:1;stroke-miterlimit:10;" d="M 68.851562 209.078125 L 67.820312 189.980469 "/>
<path style=" stroke:none;fill-rule:nonzero;fill:rgb(100%,100%,100%);fill-opacity:1;" d="M 63.882812 218.675781 L 75.882812 218.675781 L 75.882812 237.675781 L 63.882812 237.675781 Z M 63.882812 218.675781 "/>
<g style="fill:rgb(0%,0%,100%);fill-opacity:1;">
  <use xlink:href="#glyph0-1" x="63.882812" y="233.527344"/>
</g>
<path style="fill:none;stroke-width:1.2;stroke-linecap:butt;stroke-linejoin:miter;stroke:rgb(0%,0%,0%);stroke-opacity:1;stroke-miterlimit:10;" d="M 67.820312 189.980469 L 50.769531 181.324219 "/>
<path style="fill:none;stroke-width:1.2;stroke-linecap:butt;stroke-linejoin:miter;stroke:rgb(0%,0%,100%);stroke-opacity:1;stroke-miterlimit:10;" d="M 50.769531 181.324219 L 33.714844 172.667969 "/>
<path style="fill:none;stroke-width:1.2;stroke-linecap:butt;stroke-linejoin:miter;stroke:rgb(0%,0%,0%);stroke-opacity:1;stroke-miterlimit:10;" d="M 68.484375 180.222656 L 54.839844 173.296875 "/>
<path style="fill:none;stroke-width:1.2;stroke-linecap:butt;stroke-linejoin:miter;stroke:rgb(0%,0%,100%);stroke-opacity:1;stroke-miterlimit:10;" d="M 54.839844 173.296875 L 41.199219 166.375 "/>
<path style="fill:none;stroke-width:1.2;stroke-linecap:butt;stroke-linejoin:miter;stroke:rgb(0%,0%,100%);stroke-opacity:1;stroke-miterlimit:10;" d="M 99.867188 169.097656 L 83.84375 179.539062 "/>
<path style="fill:none;stroke-width:1.2;stroke-linecap:butt;stroke-linejoin:miter;stroke:rgb(0%,0%,0%);stroke-opacity:1;stroke-miterlimit:10;" d="M 83.84375 179.539062 L 67.820312 189.980469 "/>
<path style="fill:none;stroke-width:1.2;stroke-linecap:butt;stroke-linejoin:miter;stroke:rgb(0%,0%,100%);stroke-opacity:1;stroke-miterlimit:10;" d="M 33.714844 172.667969 L 32.683594 153.570312 "/>
<path style="fill:none;stroke-width:1.2;stroke-linecap:butt;stroke-linejoin:miter;stroke:rgb(0%,0%,0%);stroke-opacity:1;stroke-miterlimit:10;" d="M 32.683594 153.570312 L 31.652344 134.472656 "/>
<path style=" stroke:none;fill-rule:nonzero;fill:rgb(100%,100%,100%);fill-opacity:1;" d="M 27.714844 163.167969 L 39.714844 163.167969 L 39.714844 182.167969 L 27.714844 182.167969 Z M 27.714844 163.167969 "/>
<g style="fill:rgb(0%,0%,100%);fill-opacity:1;">
  <use xlink:href="#glyph0-1" x="27.714844" y="178.019531"/>
</g>
<path style="fill:none;stroke-width:1.2;stroke-linecap:butt;stroke-linejoin:miter;stroke:rgb(0%,0%,0%);stroke-opacity:1;stroke-miterlimit:10;" d="M 31.652344 134.472656 L 63.699219 113.589844 "/>
<path style="fill:none;stroke-width:1.2;stroke-linecap:butt;stroke-linejoin:miter;stroke:rgb(0%,0%,0%);stroke-opacity:1;stroke-miterlimit:10;" d="M 39.769531 139.925781 L 65.40625 123.21875 "/>
<path style="fill:none;stroke-width:1.2;stroke-linecap:butt;stroke-linejoin:miter;stroke:rgb(0%,0%,0%);stroke-opacity:1;stroke-miterlimit:10;" d="M 63.699219 113.589844 L 97.808594 130.902344 "/>
<path style="fill:none;stroke-width:1.2;stroke-linecap:butt;stroke-linejoin:miter;stroke:rgb(0%,0%,100%);stroke-opacity:1;stroke-miterlimit:10;" d="M 61.636719 75.394531 L 62.667969 94.492188 "/>
<path style="fill:none;stroke-width:1.2;stroke-linecap:butt;stroke-linejoin:miter;stroke:rgb(0%,0%,0%);stroke-opacity:1;stroke-miterlimit:10;" d="M 62.667969 94.492188 L 63.699219 113.589844 "/>
<path style="fill:none;stroke-width:1.2;stroke-linecap:butt;stroke-linejoin:miter;stroke:rgb(0%,0%,0%);stroke-opacity:1;stroke-miterlimit:10;" d="M 97.808594 130.902344 L 98.839844 150 "/>
<path style="fill:none;stroke-width:1.2;stroke-linecap:butt;stroke-linejoin:miter;stroke:rgb(0%,0%,100%);stroke-opacity:1;stroke-miterlimit:10;" d="M 98.839844 150 L 99.867188 169.097656 "/>
<path style="fill:none;stroke-width:1.2;stroke-linecap:butt;stroke-linejoin:miter;stroke:rgb(0%,0%,0%);stroke-opacity:1;stroke-miterlimit:10;" d="M 89.027344 135.207031 L 89.851562 150.484375 "/>
<path style="fill:none;stroke-width:1.2;stroke-linecap:butt;stroke-linejoin:miter;stroke:rgb(0%,0%,100%);stroke-opacity:1;stroke-miterlimit:10;" d="M 89.851562 150.484375 L 90.675781 165.761719 "/>
<path style="fill:none;stroke-width:1.2;stroke-linecap:butt;stroke-linejoin:miter;stroke:rgb(0%,0%,0%);stroke-opacity:1;stroke-miterlimit:10;" d="M 97.808594 130.902344 L 113.832031 120.460938 "/>
<path style="fill:none;stroke-width:1.2;stroke-linecap:butt;stroke-linejoin:miter;stroke:rgb(0%,0%,100%);stroke-opacity:1;stroke-miterlimit:10;" d="M 113.832031 120.460938 L 129.855469 110.019531 "/>
<path style=" stroke:none;fill-rule:nonzero;fill:rgb(100%,100%,100%);fill-opacity:1;" d="M 93.867188 159.597656 L 105.867188 159.597656 L 105.867188 178.597656 L 93.867188 178.597656 Z M 93.867188 159.597656 "/>
<g style="fill:rgb(0%,0%,100%);fill-opacity:1;">
  <use xlink:href="#glyph0-1" x="93.867188" y="174.449219"/>
</g>
<path style="fill:none;stroke-width:1.2;stroke-linecap:butt;stroke-linejoin:miter;stroke:rgb(0%,0%,100%);stroke-opacity:1;stroke-miterlimit:10;" d="M 129.855469 110.019531 L 128.824219 90.921875 "/>
<path style="fill:none;stroke-width:1.2;stroke-linecap:butt;stroke-linejoin:miter;stroke:rgb(0%,0%,0%);stroke-opacity:1;stroke-miterlimit:10;" d="M 128.824219 90.921875 L 127.792969 71.824219 "/>
<path style="fill:none;stroke-width:1.2;stroke-linecap:butt;stroke-linejoin:miter;stroke:rgb(0%,0%,100%);stroke-opacity:1;stroke-miterlimit:10;" d="M 129.855469 110.019531 L 146.90625 118.675781 "/>
<path style="fill:none;stroke-width:1.2;stroke-linecap:butt;stroke-linejoin:miter;stroke:rgb(0%,0%,0%);stroke-opacity:1;stroke-miterlimit:10;" d="M 146.90625 118.675781 L 163.960938 127.332031 "/>
<path style=" stroke:none;fill-rule:nonzero;fill:rgb(100%,100%,100%);fill-opacity:1;" d="M 123.855469 100.519531 L 135.855469 100.519531 L 135.855469 119.519531 L 123.855469 119.519531 Z M 123.855469 100.519531 "/>
<g style="fill:rgb(0%,0%,100%);fill-opacity:1;">
  <use xlink:href="#glyph0-1" x="123.855469" y="115.371094"/>
</g>
<path style="fill:none;stroke-width:1.2;stroke-linecap:butt;stroke-linejoin:miter;stroke:rgb(0%,0%,0%);stroke-opacity:1;stroke-miterlimit:10;" d="M 130.25 75.597656 L 146.273438 65.15625 "/>
<path style="fill:none;stroke-width:1.2;stroke-linecap:butt;stroke-linejoin:miter;stroke:rgb(100%,0%,0%);stroke-opacity:1;stroke-miterlimit:10;" d="M 146.273438 65.15625 L 162.296875 54.714844 "/>
<path style="fill:none;stroke-width:1.2;stroke-linecap:butt;stroke-linejoin:miter;stroke:rgb(0%,0%,0%);stroke-opacity:1;stroke-miterlimit:10;" d="M 125.335938 68.054688 L 141.359375 57.613281 "/>
<path style="fill:none;stroke-width:1.2;stroke-linecap:butt;stroke-linejoin:miter;stroke:rgb(100%,0%,0%);stroke-opacity:1;stroke-miterlimit:10;" d="M 141.359375 57.613281 L 157.382812 47.171875 "/>
<path style="fill:none;stroke-width:1.2;stroke-linecap:butt;stroke-linejoin:miter;stroke:rgb(0%,0%,0%);stroke-opacity:1;stroke-miterlimit:10;" d="M 127.792969 71.824219 L 93.683594 54.515625 "/>
<path style=" stroke:none;fill-rule:nonzero;fill:rgb(100%,100%,100%);fill-opacity:1;" d="M 153.839844 41.445312 L 166.839844 41.445312 L 166.839844 60.445312 L 153.839844 60.445312 Z M 153.839844 41.445312 "/>
<g style="fill:rgb(100%,0%,0%);fill-opacity:1;">
  <use xlink:href="#glyph0-2" x="153.839844" y="56.296875"/>
</g>
<path style="fill:none;stroke-width:1.2;stroke-linecap:butt;stroke-linejoin:miter;stroke:rgb(0%,0%,0%);stroke-opacity:1;stroke-miterlimit:10;" d="M 93.683594 54.515625 L 77.660156 64.957031 "/>
<path style="fill:none;stroke-width:1.2;stroke-linecap:butt;stroke-linejoin:miter;stroke:rgb(0%,0%,100%);stroke-opacity:1;stroke-miterlimit:10;" d="M 77.660156 64.957031 L 61.636719 75.394531 "/>
<path style="fill:none;stroke-width:1.2;stroke-linecap:butt;stroke-linejoin:miter;stroke:rgb(0%,0%,0%);stroke-opacity:1;stroke-miterlimit:10;" d="M 95.394531 64.144531 L 82.574219 72.496094 "/>
<path style="fill:none;stroke-width:1.2;stroke-linecap:butt;stroke-linejoin:miter;stroke:rgb(0%,0%,100%);stroke-opacity:1;stroke-miterlimit:10;" d="M 82.574219 72.496094 L 69.757812 80.847656 "/>
<path style=" stroke:none;fill-rule:nonzero;fill:rgb(100%,100%,100%);fill-opacity:1;" d="M 55.636719 65.894531 L 67.636719 65.894531 L 67.636719 84.894531 L 55.636719 84.894531 Z M 55.636719 65.894531 "/>
<g style="fill:rgb(0%,0%,100%);fill-opacity:1;">
  <use xlink:href="#glyph0-1" x="55.636719" y="80.746094"/>
</g>
<path style="fill:none;stroke-width:1.2;stroke-linecap:butt;stroke-linejoin:miter;stroke:rgb(0%,0%,0%);stroke-opacity:1;stroke-miterlimit:10;" d="M 163.960938 127.332031 L 166.023438 165.527344 "/>
<path style="fill:none;stroke-width:1.2;stroke-linecap:butt;stroke-linejoin:miter;stroke:rgb(0%,0%,0%);stroke-opacity:1;stroke-miterlimit:10;" d="M 173.15625 130.667969 L 174.804688 161.222656 "/>
<path style="fill:none;stroke-width:1.2;stroke-linecap:butt;stroke-linejoin:miter;stroke:rgb(0%,0%,0%);stroke-opacity:1;stroke-miterlimit:10;" d="M 196.007812 106.449219 L 163.960938 127.332031 "/>
<path style="fill:none;stroke-width:1.2;stroke-linecap:butt;stroke-linejoin:miter;stroke:rgb(0%,0%,0%);stroke-opacity:1;stroke-miterlimit:10;" d="M 166.023438 165.527344 L 200.132812 182.839844 "/>
<path style="fill:none;stroke-width:1.2;stroke-linecap:butt;stroke-linejoin:miter;stroke:rgb(0%,0%,0%);stroke-opacity:1;stroke-miterlimit:10;" d="M 200.132812 182.839844 L 232.179688 161.957031 "/>
<path style="fill:none;stroke-width:1.2;stroke-linecap:butt;stroke-linejoin:miter;stroke:rgb(0%,0%,0%);stroke-opacity:1;stroke-miterlimit:10;" d="M 198.421875 173.210938 L 224.058594 156.503906 "/>
<path style="fill:none;stroke-width:1.2;stroke-linecap:butt;stroke-linejoin:miter;stroke:rgb(0%,0%,0%);stroke-opacity:1;stroke-miterlimit:10;" d="M 232.179688 161.957031 L 230.117188 123.761719 "/>
<path style="fill:none;stroke-width:1.2;stroke-linecap:butt;stroke-linejoin:miter;stroke:rgb(0%,0%,0%);stroke-opacity:1;stroke-miterlimit:10;" d="M 232.179688 161.957031 L 249.230469 170.613281 "/>
<path style="fill:none;stroke-width:1.2;stroke-linecap:butt;stroke-linejoin:miter;stroke:rgb(100%,0%,0%);stroke-opacity:1;stroke-miterlimit:10;" d="M 249.230469 170.613281 L 266.285156 179.269531 "/>
<path style="fill:none;stroke-width:1.2;stroke-linecap:butt;stroke-linejoin:miter;stroke:rgb(0%,0%,0%);stroke-opacity:1;stroke-miterlimit:10;" d="M 230.117188 123.761719 L 196.007812 106.449219 "/>
<path style="fill:none;stroke-width:1.2;stroke-linecap:butt;stroke-linejoin:miter;stroke:rgb(0%,0%,0%);stroke-opacity:1;stroke-miterlimit:10;" d="M 222.632812 130.054688 L 195.347656 116.207031 "/>
<path style="fill:none;stroke-width:1.2;stroke-linecap:butt;stroke-linejoin:miter;stroke:rgb(100%,0%,0%);stroke-opacity:1;stroke-miterlimit:10;" d="M 266.285156 179.269531 L 267.316406 198.367188 "/>
<path style="fill:none;stroke-width:1.2;stroke-linecap:butt;stroke-linejoin:miter;stroke:rgb(0%,0%,0%);stroke-opacity:1;stroke-miterlimit:10;" d="M 267.316406 198.367188 L 268.347656 217.464844 "/>
<path style=" stroke:none;fill-rule:nonzero;fill:rgb(100%,100%,100%);fill-opacity:1;" d="M 260.285156 169.769531 L 273.285156 169.769531 L 273.285156 188.769531 L 260.285156 188.769531 Z M 260.285156 169.769531 "/>
<g style="fill:rgb(100%,0%,0%);fill-opacity:1;">
  <use xlink:href="#glyph0-2" x="260.285156" y="184.621094"/>
</g>
</g>
</svg>

<svg xmlns="http://www.w3.org/2000/svg" xmlns:xlink="http://www.w3.org/1999/xlink" width="300pt" height="300pt" viewBox="0 0 300 300"><defs><symbol overflow="visible"><path d="M.797 2.828v-14.11h8V2.83zm.906-.89h6.203v-12.33H1.703zm0 0"/></symbol><symbol overflow="visible" id="a"><path d="M1.578-11.672h2.125l5.172 9.766v-9.766h1.53V0H8.282L3.11-9.766V0H1.577zm0 0"/></symbol><symbol overflow="visible" id="b"><path d="M6.313-10.594c-1.15 0-2.06.43-2.735 1.28-.68.857-1.015 2.017-1.015 3.486 0 1.47.335 2.633 1.015 3.484.676.856 1.586 1.28 2.735 1.28 1.144.002 2.05-.424 2.718-1.28.665-.85 1-2.015 1-3.484 0-1.47-.335-2.63-1-3.484-.667-.852-1.573-1.282-2.717-1.282zm0-1.28c1.632 0 2.94.546 3.92 1.64.978 1.093 1.47 2.562 1.47 4.406 0 1.844-.492 3.32-1.47 4.422-.98 1.093-2.288 1.64-3.92 1.64-1.65 0-2.96-.546-3.938-1.64-.98-1.102-1.47-2.578-1.47-4.422 0-1.844.49-3.313 1.47-4.406.977-1.094 2.29-1.64 3.938-1.64zm0 0"/></symbol></defs><g><path fill="#fff" d="M0 0h300v300H0z"/><path d="M37.836 249.055l16.023-10.442" stroke-width="1.2" stroke="#000" stroke-miterlimit="10" fill="none"/><path d="M53.86 238.613l16.023-10.437M69.883 228.176l17.055 8.652" stroke-width="1.2" stroke="#00f" stroke-miterlimit="10" fill="none"/><path d="M86.938 236.828l17.054 8.656" stroke-width="1.2" stroke="#000" stroke-miterlimit="10" fill="none"/><path d="M69.883 228.176l-1.03-19.098" stroke-width="1.2" stroke="#00f" stroke-miterlimit="10" fill="none"/><path d="M68.852 209.078L67.82 189.98" stroke-width="1.2" stroke="#000" stroke-miterlimit="10" fill="none"/><path d="M63.883 218.676h12v19h-12zm0 0" fill="#fff"/><use xlink:href="#a" x="63.883" y="233.527" fill="#00f"/><path d="M67.82 189.98l-17.05-8.656" stroke-width="1.2" stroke="#000" stroke-miterlimit="10" fill="none"/><path d="M50.77 181.324l-17.055-8.656" stroke-width="1.2" stroke="#00f" stroke-miterlimit="10" fill="none"/><path d="M68.484 180.223l-13.644-6.926" stroke-width="1.2" stroke="#000" stroke-miterlimit="10" fill="none"/><path d="M54.84 173.297l-13.64-6.922M99.867 169.098l-16.023 10.44" stroke-width="1.2" stroke="#00f" stroke-miterlimit="10" fill="none"/><path d="M83.844 179.54L67.82 189.98" stroke-width="1.2" stroke="#000" stroke-miterlimit="10" fill="none"/><path d="M33.715 172.668l-1.03-19.098" stroke-width="1.2" stroke="#00f" stroke-miterlimit="10" fill="none"/><path d="M32.684 153.57l-1.032-19.097" stroke-width="1.2" stroke="#000" stroke-miterlimit="10" fill="none"/><path d="M27.715 163.168h12v19h-12zm0 0" fill="#fff"/><use xlink:href="#a" x="27.715" y="178.02" fill="#00f"/><path d="M31.652 134.473L63.7 113.59M39.77 139.926l25.636-16.707M63.7 113.59l34.11 17.312" stroke-width="1.2" stroke="#000" stroke-miterlimit="10" fill="none"/><path d="M61.637 75.395l1.03 19.097" stroke-width="1.2" stroke="#00f" stroke-miterlimit="10" fill="none"/><path d="M62.668 94.492l1.03 19.098M97.81 130.902L98.84 150" stroke-width="1.2" stroke="#000" stroke-miterlimit="10" fill="none"/><path d="M98.84 150l1.027 19.098" stroke-width="1.2" stroke="#00f" stroke-miterlimit="10" fill="none"/><path d="M89.027 135.207l.825 15.277" stroke-width="1.2" stroke="#000" stroke-miterlimit="10" fill="none"/><path d="M89.852 150.484l.824 15.278" stroke-width="1.2" stroke="#00f" stroke-miterlimit="10" fill="none"/><path d="M97.81 130.902l16.022-10.44" stroke-width="1.2" stroke="#000" stroke-miterlimit="10" fill="none"/><path d="M113.832 120.46l16.023-10.44" stroke-width="1.2" stroke="#00f" stroke-miterlimit="10" fill="none"/><path d="M93.867 159.598h12v19h-12zm0 0" fill="#fff"/><use xlink:href="#a" x="93.867" y="174.449" fill="#00f"/><path d="M129.855 110.02l-1.03-19.098" stroke-width="1.2" stroke="#00f" stroke-miterlimit="10" fill="none"/><path d="M128.824 90.922l-1.03-19.098" stroke-width="1.2" stroke="#000" stroke-miterlimit="10" fill="none"/><path d="M129.855 110.02l17.05 8.656" stroke-width="1.2" stroke="#00f" stroke-miterlimit="10" fill="none"/><path d="M146.906 118.676l17.055 8.656" stroke-width="1.2" stroke="#000" stroke-miterlimit="10" fill="none"/><path d="M123.855 100.52h12v19h-12zm0 0" fill="#fff"/><use xlink:href="#a" x="123.855" y="115.371" fill="#00f"/><path d="M130.25 75.598l16.023-10.442" stroke-width="1.2" stroke="#000" stroke-miterlimit="10" fill="none"/><path d="M146.273 65.156l16.024-10.44" stroke-width="1.2" stroke="#f00" stroke-miterlimit="10" fill="none"/><path d="M125.336 68.055l16.023-10.442" stroke-width="1.2" stroke="#000" stroke-miterlimit="10" fill="none"/><path d="M141.36 57.613l16.023-10.44" stroke-width="1.2" stroke="#f00" stroke-miterlimit="10" fill="none"/><path d="M127.793 71.824l-34.11-17.308" stroke-width="1.2" stroke="#000" stroke-miterlimit="10" fill="none"/><path d="M153.84 41.445h13v19h-13zm0 0" fill="#fff"/><use xlink:href="#b" x="153.84" y="56.297" fill="#f00"/><path d="M93.684 54.516L77.66 64.956" stroke-width="1.2" stroke="#000" stroke-miterlimit="10" fill="none"/><path d="M77.66 64.957L61.637 75.395" stroke-width="1.2" stroke="#00f" stroke-miterlimit="10" fill="none"/><path d="M95.395 64.145l-12.82 8.35" stroke-width="1.2" stroke="#000" stroke-miterlimit="10" fill="none"/><path d="M82.574 72.496l-12.816 8.352" stroke-width="1.2" stroke="#00f" stroke-miterlimit="10" fill="none"/><path d="M55.637 65.895h12v19h-12zm0 0" fill="#fff"/><use xlink:href="#a" x="55.637" y="80.746" fill="#00f"/><path d="M163.96 127.332l2.063 38.195M173.156 130.668l1.65 30.555M196.008 106.45L163.96 127.33M166.023 165.527l34.11 17.313M200.133 182.84l32.047-20.883M198.422 173.21l25.637-16.706M232.18 161.957l-2.063-38.195M232.18 161.957l17.05 8.656" stroke-width="1.2" stroke="#000" stroke-miterlimit="10" fill="none"/><path d="M249.23 170.613l17.055 8.657" stroke-width="1.2" stroke="#f00" stroke-miterlimit="10" fill="none"/><path d="M230.117 123.762l-34.11-17.313M222.633 130.055l-27.285-13.848" stroke-width="1.2" stroke="#000" stroke-miterlimit="10" fill="none"/><path d="M266.285 179.27l1.03 19.097" stroke-width="1.2" stroke="#f00" stroke-miterlimit="10" fill="none"/><path d="M267.316 198.367l1.032 19.098" stroke-width="1.2" stroke="#000" stroke-miterlimit="10" fill="none"/><path d="M260.285 169.77h13v19h-13zm0 0" fill="#fff"/><use xlink:href="#b" x="260.285" y="184.621" fill="#f00"/></g></svg>
